Suru++-Ubuntu/apps/symbolic/jdownloader-symbolic.svg

<svg viewBox="0 0 16 16" xmlns="http://www.w3.org/2000/svg">
 <defs>
  <style type="text/css">.ColorScheme-Text { color:#808080; }</style>
 </defs>
 <path class="ColorScheme-Text" d="m6 2v1 3h1v-3h2v3h1v-3-1h-1-2-1zm-2.1953125 4-0.8046875 0.8320312 5 5.1679688 5-5.1679688-0.804688-0.8320312-4.195312 4.337891-4.1953125-4.337891zm-1.8046875 6v2h1 10 1v-1-1h-1v1h-10v-1h-1z" style="fill:currentColor"/>
</svg>

<svg xmlns="http://www.w3.org/2000/svg" viewBox="0 0 16 16">
 <defs>
  <style id="current-color-scheme" type="text/css">
   .ColorScheme-Text { color:#808080; }
  </style>
 </defs>
 <path style="fill:currentColor" class="ColorScheme-Text" d="M 6 2 L 6 3 L 6 6 L 7 6 L 7 3 L 9 3 L 9 6 L 10 6 L 10 3 L 10 2 L 9 2 L 7 2 L 6 2 z M 3.8046875 6 L 3 6.8320312 L 8 12 L 13 6.8320312 L 12.195312 6 L 8 10.337891 L 3.8046875 6 z M 2 12 L 2 14 L 3 14 L 13 14 L 14 14 L 14 13 L 14 12 L 13 12 L 13 13 L 3 13 L 3 12 L 2 12 z"/>
</svg>
